configs/network-logos/celo-logo-light.svg

<svg width="106" height="24" viewBox="0 0 106 24" fill="none" xmlns="http://www.w3.org/2000/svg">
<g clip-path="url(#clip0_11241_6209)">
<path d="M94.2966 20.857C99.1757 20.857 103.088 16.912 103.088 12.0328C103.088 7.15371 99.1757 3.24163 94.2966 3.24163C89.4175 3.24163 85.5054 7.18668 85.5054 12.0328C85.5164 16.868 89.4615 20.857 94.2966 20.857ZM82.3186 0.0438232H106.319V24.0438H82.3186V0.0438232Z" fill="black"/>
<path fill-rule="evenodd" clip-rule="evenodd" d="M47.2855 15.6702C45.8789 18.7251 42.824 20.857 39.2526 20.857C34.5163 20.857 30.6372 17.0768 30.4614 12.3735H51.2635V0.0438232H27.2745V24.0438H51.2745V15.6702H47.2855ZM30.846 9.41745H47.6042C46.3734 5.32954 43.0767 3.24163 39.2635 3.24163C35.4504 3.24163 31.9009 5.47239 30.846 9.41745Z" fill="black"/>
<path d="M24.0438 0.0438232H0.0438232V24.0438H24.0438V15.6702H20.0658C18.6922 18.7251 15.6043 20.857 12.0658 20.857C7.18668 20.857 3.24163 16.879 3.24163 12.0328C3.24163 7.18668 7.18668 3.24163 12.0658 3.24163C15.6702 3.24163 18.7581 5.43943 20.1317 8.56031H24.0438V0.0438232Z" fill="black"/>
<path d="M79.3184 15.6702H75.3404C74.1426 18.824 70.9119 20.824 67.2415 20.824C62.5053 20.824 58.5162 17.3955 58.5162 12.0328V0.0438232H54.4613V24.0438H79.3184V15.6702Z" fill="black"/>
</g>
<defs>
<clipPath id="clip0_11241_6209">
<rect width="106" height="24" fill="white"/>
</clipPath>
</defs>
</svg>

<svg xmlns="http://www.w3.org/2000/svg" fill="none" viewBox="0 0 106 24">
  <g fill="#000" clip-path="url(#celo-logo-light_svg__a)">
    <path d="M94.297 20.857c4.879 0 8.791-3.945 8.791-8.824a8.761 8.761 0 0 0-8.791-8.791 8.782 8.782 0 0 0-8.792 8.79c.011 4.836 3.957 8.825 8.792 8.825ZM82.319.044h24v24h-24v-24Z"/>
    <path fill-rule="evenodd" d="M47.285 15.67c-1.406 3.055-4.461 5.187-8.032 5.187-4.737 0-8.616-3.78-8.792-8.483h20.803V.043h-23.99v24h24V15.67h-3.989ZM30.846 9.417h16.758c-1.23-4.087-4.527-6.175-8.34-6.175-3.814 0-7.363 2.23-8.418 6.175Z" clip-rule="evenodd"/>
    <path d="M24.044.044h-24v24h24V15.67h-3.978c-1.374 3.055-4.462 5.187-8 5.187-4.88 0-8.824-3.978-8.824-8.824s3.945-8.791 8.824-8.791c3.604 0 6.692 2.197 8.066 5.318h3.912V.044ZM79.318 15.67H75.34c-1.197 3.154-4.428 5.154-8.099 5.154-4.736 0-8.725-3.429-8.725-8.791V.043h-4.055v24h24.857V15.67Z"/>
  </g>
  <defs>
    <clipPath id="celo-logo-light_svg__a">
      <path fill="#fff" d="M0 0h106v24H0z"/>
    </clipPath>
  </defs>
</svg>
